lib/svg/briefcase.svg

<svg xmlns="http://www.w3.org/2000/svg" width="14" height="16" viewBox="0 0 14 16"><path d="M9 4V3c0-.55-.45-1-1-1H6c-.55 0-1 .45-1 1v1H1c-.55 0-1 .45-1 1v8c0 .55.45 1 1 1h12c.55 0 1-.45 1-1V5c0-.55-.45-1-1-1H9zM6 3h2v1H6V3zm7 6H8v1H6V9H1V5h1v3h10V5h1v4z"/></svg>

<?xml version="1.0" encoding="UTF-8" standalone="no"?>
<svg width="14px" height="16px" viewBox="0 0 14 16" version="1.1" xmlns="http://www.w3.org/2000/svg" xmlns:xlink="http://www.w3.org/1999/xlink">
    <!-- Generator: Sketch 3.8.3 (29802) - http://www.bohemiancoding.com/sketch -->
    <title>briefcase</title>
    <desc>Created with Sketch.</desc>
    <defs></defs>
    <g id="Octicons" stroke="none" stroke-width="1" fill="none" fill-rule="evenodd">
        <g id="briefcase" fill="#000000">
            <path d="M9,4 L9,3 C9,2.45 8.55,2 8,2 L6,2 C5.45,2 5,2.45 5,3 L5,4 L1,4 C0.45,4 0,4.45 0,5 L0,13 C0,13.55 0.45,14 1,14 L13,14 C13.55,14 14,13.55 14,13 L14,5 C14,4.45 13.55,4 13,4 L9,4 L9,4 Z M6,3 L8,3 L8,4 L6,4 L6,3 L6,3 Z M13,9 L8,9 L8,10 L6,10 L6,9 L1,9 L1,5 L2,5 L2,8 L12,8 L12,5 L13,5 L13,9 L13,9 Z" id="Shape"></path>
        </g>
    </g>
</svg>
